X:10955
T:Miss Montgomery
M:4/4
L:1/8
K:AMix
f|e<Ae>c e<Ag>e|d<Gd>B d<Gf>d|e<Ae>c e<Ag>e|d>Bg>B A<A A:|
f|e>ac>a e>fg>e|d>gB>g d>gf>d|e>ac>a e>fg>e|d>Bg>B A<A A:|
